icons/unity-panel/22x22/panel/bluetooth-disabled.svg

<svg version="1.0" viewBox="0 0 11 22" xmlns="http://www.w3.org/2000/svg">
 <g transform="translate(-7,-5)">
  <path d="m9.662 8c-0.838 0.01-1.45-0.02-1.953 0.258-0.25 0.138-0.45 0.371-0.56 0.664-0.11 0.292-0.149 0.64-0.149 1.078v12c0 0.438 0.039 0.786 0.149 1.078 0.11 0.293 0.31 0.528 0.56 0.666 0.502 0.277 1.115 0.246 1.953 0.256h5.676c0.839-0.01 1.451 0.021 1.953-0.256a1.25 1.25 0 0 0 0.56-0.666c0.11-0.292 0.15-0.64 0.15-1.078v-12c0-0.438-0.04-0.786-0.15-1.078a1.253 1.253 0 0 0-0.56-0.664c-0.502-0.277-1.114-0.248-1.953-0.258h-5.674zm2.338 1.303 4.24 4.238-2.939 2.469 2.94 2.469-4.24 4.238v-5.613l-2.429 2.039-0.644-0.766 2.818-2.367-2.818-2.367 0.644-0.766 2.428 2.039zm1 2.414v3.24l1.76-1.48zm0 5.345v3.24l1.76-1.759z" fill="#fff" font-family="sans-serif" font-weight="400" opacity=".5" overflow="visible" style="isolation:auto;mix-blend-mode:normal;shape-padding:0;text-decoration-color:#000000;text-decoration-line:none;text-decoration-style:solid;text-indent:0;text-transform:none" white-space="normal"/>
 </g>
</svg>

<?xml version="1.0" encoding="UTF-8" standalone="no"?>
<svg
   version="1.0"
   viewBox="0 0 11 22"
   id="svg4"
   sodipodi:docname="bluetooth-disabled.svg"
   inkscape:version="1.1.1 (3bf5ae0d25, 2021-09-20)"
   width="11"
   height="22"
   xmlns:inkscape="http://www.inkscape.org/namespaces/inkscape"
   xmlns:sodipodi="http://sodipodi.sourceforge.net/DTD/sodipodi-0.dtd"
   xmlns="http://www.w3.org/2000/svg"
   xmlns:svg="http://www.w3.org/2000/svg">
  <defs
     id="defs8" />
  <sodipodi:namedview
     id="namedview6"
     pagecolor="#ffffff"
     bordercolor="#666666"
     borderopacity="1.0"
     inkscape:pageshadow="2"
     inkscape:pageopacity="0.0"
     inkscape:pagecheckerboard="0"
     showgrid="true"
     inkscape:zoom="24.181818"
     inkscape:cx="13.584587"
     inkscape:cy="8.0845865"
     inkscape:window-width="1298"
     inkscape:window-height="704"
     inkscape:window-x="68"
     inkscape:window-y="27"
     inkscape:window-maximized="1"
     inkscape:current-layer="svg4"
     width="11px">
    <inkscape:grid
       type="xygrid"
       id="grid843" />
  </sodipodi:namedview>
  <g
     id="g831"
     transform="translate(-7,-5)">
    <path
       d="M 9.662,8 C 8.824,8.01 8.212,7.98 7.709,8.258 7.459,8.396 7.259,8.629 7.149,8.922 7.039,9.214 7,9.562 7,10 v 12 c 0,0.438 0.039,0.786 0.149,1.078 0.11,0.293 0.31,0.528 0.56,0.666 0.502,0.277 1.115,0.246 1.953,0.256 h 5.676 c 0.839,-0.01 1.451,0.021 1.953,-0.256 a 1.25,1.25 0 0 0 0.56,-0.666 c 0.11,-0.292 0.15,-0.64 0.15,-1.078 V 10 c 0,-0.438 -0.04,-0.786 -0.15,-1.078 A 1.253,1.253 0 0 0 17.291,8.258 C 16.789,7.981 16.177,8.01 15.338,8 H 9.664 Z M 12,9.303 l 4.24,4.238 -2.939,2.469 2.94,2.469 -4.24,4.238 V 17.104 L 9.572,19.143 8.928,18.377 11.746,16.01 8.928,13.643 9.572,12.877 12,14.916 Z m 1,2.414 v 3.24 l 1.76,-1.48 z m 0,5.345 v 3.24 l 1.76,-1.759 z"
       fill="#808080"
       font-family="sans-serif"
       font-weight="400"
       opacity="0.5"
       overflow="visible"
       style="text-indent:0;text-decoration-line:none;text-decoration-style:solid;text-decoration-color:#000000;text-transform:none;shape-padding:0;isolation:auto;mix-blend-mode:normal;fill:#ffffff;fill-opacity:1"
       white-space="normal"
       id="path2" />
  </g>
</svg>
